X:36
T:WISP OF THISTLE/Thorn Bush 8 x 32 Strathspey
M:4/4
L:1/8
C:1,2,3,4  2,3,4,1
R:Strathspey
K:A
E | "A"A>B c>A "D"F<A "A"E>C | "Bm"B,<B B>c "E7"d/c/B/A/ G<B |
"A"A>B c>A "D"F<A "A"E>C | "D"D<F "E7"E>G  "A"A<A, A,E|!
"A"A>B c>A "D"F<A "A"E>C | "Bm"B,<B B>c "E7"d/c/B/A/ G<B |
"A"A>B c>A "F#m"F<A E>C | "D"D<F "E7"E>G "A"A/A/A A Ae |!
